X: 12579
T: Farewell To The Badlands
R: reel
M: 4/4
K: Dmajor
f2ed eacd-|dAcd- dcAc|B2BA BdA2|BABd dcde|
f2ed eacd-|dBdf gfed-|dBdf gfed|eA (3AAA ageg:|
f2ed eacd-|d2cB cfAB-|B2AG AFd2|BABd dcde|
f2ed eacd-|d2cB cfA2-|ABdf gfed|eA (3AAA ageg|
f2ed eacd-|d2cB cfAB-|B2AG AFd2|BGBd- dcAd-|
dGAd- dGAd-|dFAd- dFAd-|dGAd- dGAd|eA (3AAA ageg||

